docs/img/ico-developer.svg

<svg width="104" height="42" viewBox="0 0 104 42" fill="none" xmlns="http://www.w3.org/2000/svg">
<rect width="104" height="42" rx="5" fill="#333333"/>
<path fill-rule="evenodd" clip-rule="evenodd" d="M33.3968 27.1159C33.2009 27.8398 32.9214 28.216 32.0197 28.4241C30.0227 28.8052 28.0256 28.9033 26.0284 28.9032C24.0315 28.9033 22.0344 28.8052 20.0373 28.4241C19.1358 28.216 18.8562 27.8398 18.6602 27.116C18.2652 25.0888 18.1641 23.0614 18.1645 21.0341C18.164 19.0068 18.2652 16.9795 18.6603 14.9522C18.8562 14.2283 19.1358 13.8521 20.0374 13.644C22.0345 13.263 24.0315 13.1649 26.0285 13.1649C28.0257 13.1648 30.0228 13.263 32.0198 13.644C32.9215 13.8521 33.2009 14.2285 33.3969 14.9522C33.7921 16.9795 33.8931 19.0068 33.8926 21.0341C33.8932 23.0614 33.7921 25.0888 33.3968 27.1159ZM36.0571 21.025H36.0568C36.0558 18.8742 35.8647 16.7232 35.4783 14.5725C35.2355 13.1509 34.1165 11.9115 32.5733 11.5951C30.3965 11.1986 28.2197 11.002 26.0428 11.0003V11C26.0379 11 26.0332 11.0001 26.0284 11.0001C26.0237 11.0001 26.019 11 26.0143 11V11.0003C23.8376 11.002 21.6606 11.1985 19.4838 11.5951C17.9406 11.9115 16.8216 13.151 16.5788 14.5725C16.1923 16.7232 16.0013 18.8742 16.0003 21.025H16C16 21.028 16.0001 21.0311 16.0001 21.0341C16.0001 21.0371 16 21.0403 16 21.0432H16.0003C16.0013 23.1939 16.1923 25.3449 16.5788 27.4957C16.8216 28.9171 17.9406 30.1567 19.4838 30.4731C21.6606 30.8694 23.8374 31.0662 26.0143 31.068V31.0681C26.019 31.0681 26.0237 31.0681 26.0284 31.0681C26.0333 31.068 26.038 31.0682 26.0428 31.0682V31.0676C28.2197 31.0662 30.3965 30.8696 32.5733 30.473C34.1165 30.1565 35.2356 28.917 35.4783 27.4956C35.8647 25.3446 36.0558 23.1938 36.0568 21.0431H36.0571C36.0571 21.04 36.057 21.037 36.057 21.034C36.0571 21.031 36.0571 21.028 36.0571 21.025Z" fill="white"/>
<path fill-rule="evenodd" clip-rule="evenodd" d="M31.1258 24.3817L27.8113 21.0426L29.298 19.5447C29.4104 19.4636 29.5091 19.3652 29.5887 19.2517L30.8277 18.0035C31.1395 17.7047 31.3869 17.4037 31.3869 16.9717C31.3869 16.2905 30.8347 15.7385 30.1538 15.7385C29.7662 15.7385 29.4505 15.9322 29.1899 16.1724L29.1824 16.1843L27.6135 17.7646L27.6078 17.7588L26.0799 19.2982L24.5521 17.7589L24.5461 17.7647L22.9777 16.1844L22.97 16.1773C22.6652 15.888 22.3937 15.7385 22.0061 15.7385C21.3251 15.7385 20.7731 16.2905 20.7731 16.9717C20.7731 17.4037 21.0451 17.6948 21.3322 18.0035L22.5711 19.2517C22.6508 19.3651 22.7495 19.4636 22.862 19.5447L24.3486 21.0426L21.0342 24.3817L21.0318 24.3748C20.8606 24.5865 20.7725 24.8756 20.7725 25.1691C20.7725 25.85 21.3245 26.4023 22.0055 26.4023C22.4407 26.4021 22.7581 26.1567 23.0417 25.8359L24.2285 24.6403C24.3837 24.5436 24.5172 24.4152 24.6162 24.2615L26.0799 22.7869L27.5436 24.2615C27.6428 24.4153 27.7762 24.5436 27.9314 24.6405L29.1182 25.8361C29.3919 26.1075 29.7193 26.4024 30.1544 26.4024C30.8354 26.4022 31.3875 25.8503 31.3875 25.1692C31.3875 24.8757 31.3041 24.5965 31.1328 24.3848L31.1258 24.3817ZM84.9771 25.6734C84.9616 25.5527 84.9383 25.4554 84.9074 25.3809C84.8765 25.3069 84.8378 25.2528 84.7912 25.2186C84.7448 25.1846 84.6941 25.1675 84.6381 25.1675H79.5249V21.779H83.9421C83.9979 21.779 84.0488 21.7637 84.0952 21.7326C84.1418 21.7017 84.1803 21.6507 84.2113 21.5794C84.2424 21.5082 84.2656 21.4139 84.2809 21.2962C84.2964 21.1786 84.3043 21.0302 84.3043 20.8505C84.3043 20.6773 84.2965 20.5303 84.2809 20.4096C84.2656 20.2888 84.2422 20.1931 84.2113 20.1219C84.1805 20.0507 84.1415 19.9981 84.0952 19.9639C84.0488 19.9299 83.9979 19.913 83.9421 19.913H79.5249V16.9795H84.601C84.6569 16.9795 84.7061 16.9626 84.7498 16.9286C84.7929 16.8946 84.8299 16.8404 84.8609 16.7661C84.892 16.6918 84.9151 16.5943 84.9305 16.4736C84.946 16.3529 84.9539 16.2061 84.9539 16.0327C84.9539 15.847 84.9461 15.6938 84.9305 15.5731C84.9151 15.4523 84.892 15.3536 84.8609 15.276C84.8301 15.1987 84.7929 15.1446 84.7498 15.1136C84.7061 15.0826 84.6569 15.0671 84.601 15.0671H77.8169C77.6129 15.0671 77.4408 15.1276 77.3015 15.2483C77.1623 15.3689 77.0927 15.5655 77.0927 15.8377V26.3094C77.0927 26.5818 77.1623 26.7782 77.3015 26.8989C77.4408 27.0196 77.6128 27.0799 77.8169 27.0799H84.6381C84.694 27.0799 84.7448 27.0631 84.7912 27.0288C84.8378 26.995 84.8765 26.9405 84.9074 26.8662C84.9384 26.7922 84.9616 26.6946 84.9771 26.5739C84.9926 26.4531 85.0002 26.3032 85.0002 26.1236C85.0003 25.9443 84.9926 25.7941 84.9771 25.6734ZM73.1388 15.9948C73.0575 15.9106 72.9149 15.8115 72.7103 15.6973C72.5056 15.5829 72.2486 15.4763 71.9388 15.3773C71.6293 15.278 71.2672 15.1937 70.8524 15.1246C70.4372 15.0556 69.9777 15.021 69.4724 15.021C68.5523 15.021 67.7185 15.1622 66.9699 15.4447C66.2214 15.7275 65.582 16.1347 65.0536 16.6667C64.5244 17.1988 64.1153 17.8452 63.8267 18.6057C63.538 19.3663 63.3937 20.2246 63.3937 21.1807C63.3938 22.1065 63.5292 22.9346 63.7996 23.6651C64.0706 24.3958 64.4608 25.0151 64.9723 25.523C65.4832 26.0312 66.1068 26.419 66.8433 26.6864C67.5798 26.954 68.4142 27.0878 69.3464 27.0878C69.6649 27.0878 69.9821 27.0728 70.2979 27.0427C70.6135 27.0126 70.9259 26.9674 71.2356 26.9074C71.5453 26.8475 71.8444 26.7753 72.133 26.691C72.4215 26.6068 72.6637 26.5257 72.859 26.4474C73.0541 26.3694 73.1835 26.2627 73.2471 26.1274C73.31 25.992 73.3415 25.8342 73.3415 25.654V20.8518C73.3415 20.7314 73.3261 20.6247 73.2962 20.5316C73.2664 20.4383 73.2227 20.3587 73.1656 20.2927C73.1083 20.2265 73.0425 20.177 72.9672 20.1438C72.892 20.1107 72.8063 20.0942 72.7102 20.0942H68.7691C68.7149 20.0942 68.6667 20.1109 68.6247 20.1438C68.5827 20.177 68.5461 20.2281 68.5162 20.2972C68.4865 20.3663 68.4637 20.4581 68.4488 20.5723C68.4339 20.6864 68.426 20.8278 68.426 20.996C68.4262 21.3206 68.456 21.5507 68.5161 21.6859C68.5764 21.8212 68.6604 21.8888 68.769 21.8888H70.9784V24.7519C70.7561 24.8723 70.5156 24.9625 70.2567 25.0225C69.9985 25.0825 69.737 25.1126 69.4721 25.1126C68.9314 25.1126 68.4365 25.0255 67.9887 24.851C67.5409 24.6767 67.1576 24.4181 66.8386 24.0755C66.5201 23.7328 66.2718 23.3075 66.0949 22.7993C65.9175 22.2913 65.8285 21.7036 65.8285 21.0363C65.8285 20.429 65.9158 19.8743 66.0899 19.3723C66.2646 18.8702 66.514 18.4404 66.8386 18.0825C67.1638 17.7249 67.554 17.4482 68.0113 17.2528C68.4682 17.0575 68.9789 16.9597 69.5446 16.9597C70.0733 16.9597 70.5381 17.0138 70.9379 17.122C71.3377 17.2303 71.6816 17.3476 71.9701 17.4737C72.2588 17.6001 72.4904 17.7173 72.6646 17.8254C72.8394 17.9336 72.9654 17.9878 73.0439 17.9878C73.0976 17.9878 73.1441 17.9728 73.1833 17.9428C73.2226 17.9127 73.2556 17.8602 73.2827 17.7849C73.3098 17.7098 73.3309 17.6091 73.3457 17.4828C73.3607 17.3564 73.3684 17.2064 73.3684 17.0318C73.3684 16.7313 73.3503 16.5042 73.3142 16.3509C73.2787 16.1976 73.2201 16.0791 73.1388 15.9948ZM53.8065 22.4652L55.4922 17.3974H55.5016L57.188 22.4652H53.8065ZM57.2891 15.5729C57.2522 15.4564 57.2079 15.3641 57.1554 15.2966C57.1034 15.2289 57.0172 15.1782 56.8978 15.1446C56.7777 15.1108 56.6101 15.0893 56.3952 15.08C56.1801 15.0707 55.8915 15.0663 55.5293 15.0663C55.2158 15.0661 54.9642 15.0708 54.7735 15.08C54.5832 15.0893 54.434 15.1108 54.3267 15.1446C54.2195 15.1783 54.141 15.2275 54.0918 15.2919C54.0426 15.3564 53.9995 15.4409 53.963 15.5453L50.2862 26.1233C50.2126 26.3384 50.1666 26.5104 50.1478 26.6393C50.1296 26.7684 50.1512 26.8684 50.2125 26.9388C50.2739 27.0095 50.3844 27.054 50.5443 27.0723C50.7042 27.0908 50.9253 27.1001 51.2077 27.1001C51.4715 27.1 51.6855 27.0938 51.8479 27.0816C52.0106 27.0692 52.1366 27.0462 52.2257 27.0125C52.3147 26.9787 52.3794 26.9327 52.4192 26.8742C52.4595 26.816 52.4915 26.7438 52.5159 26.6577L53.2717 24.3265H57.7496L58.5513 26.7223C58.5757 26.8022 58.6066 26.8668 58.6436 26.9158C58.6808 26.965 58.7449 27.0033 58.8372 27.0309C58.9291 27.0585 59.0628 27.077 59.2381 27.0861C59.4129 27.0954 59.6573 27.1001 59.9707 27.1001C60.2715 27.1 60.5082 27.0923 60.6801 27.077C60.852 27.0616 60.9715 27.0218 61.0395 26.9572C61.107 26.8928 61.1318 26.7959 61.113 26.6669C61.0949 26.5379 61.0484 26.3628 60.9748 26.1416L57.2891 15.5729ZM46.0762 19.7507C45.9893 20.0139 45.8628 20.2396 45.6952 20.4283C45.5283 20.6172 45.3133 20.7641 45.0505 20.8693C44.7873 20.9745 44.4606 21.027 44.0708 21.027H42.4242V16.9516H44.0149C44.2688 16.9516 44.5147 16.9688 44.7531 17.0028C44.9914 17.0369 45.2185 17.1188 45.4353 17.2487C45.6521 17.3786 45.8345 17.5799 45.9833 17.8521C46.132 18.1245 46.2061 18.4713 46.2061 18.8919C46.2062 19.2014 46.1631 19.4877 46.0762 19.7507ZM47.9606 16.3622C47.7007 16.0684 47.3867 15.8253 47.0184 15.6335C46.6502 15.4417 46.2863 15.3102 45.9275 15.2388C45.5688 15.1679 45.2607 15.1214 45.0042 15.0997C44.747 15.078 44.4762 15.067 44.1919 15.067H40.8093C40.5616 15.067 40.3619 15.1399 40.2106 15.2853C40.0586 15.4305 39.9827 15.6489 39.9827 15.9398V26.7456C39.9827 26.8074 40.0015 26.8631 40.0387 26.9127C40.0757 26.9622 40.1409 27.0024 40.2338 27.0334C40.3267 27.0644 40.4516 27.089 40.6098 27.1077C40.7673 27.1261 40.9637 27.1355 41.1991 27.1355C41.4403 27.1354 41.6387 27.1261 41.7936 27.1077C41.9478 27.089 42.0716 27.0644 42.1646 27.0334C42.2575 27.0025 42.3238 26.9622 42.364 26.9127C42.4045 26.8631 42.4244 26.8075 42.4244 26.7456V22.9116H43.978C44.7702 22.9116 45.4586 22.8186 46.0437 22.633C46.6286 22.4472 47.1218 22.1766 47.5243 21.8206C47.9269 21.4649 48.2332 21.0268 48.4431 20.507C48.6539 19.9873 48.759 19.3899 48.759 18.7155C48.759 18.2266 48.691 17.7856 48.5549 17.3925C48.4184 16.9997 48.2205 16.6561 47.9606 16.3622Z" fill="white"/>
</svg>

<svg width="104" height="42" fill="none" xmlns="http://www.w3.org/2000/svg"><rect width="104" height="42" rx="5" fill="#333"/><path fill-rule="evenodd" clip-rule="evenodd" d="M33.397 27.116c-.196.724-.476 1.1-1.377 1.308-1.997.381-3.994.48-5.992.48-1.996 0-3.994-.099-5.99-.48-.902-.208-1.182-.584-1.378-1.308-.395-2.027-.496-4.055-.495-6.082-.001-2.027.1-4.054.495-6.082.196-.724.476-1.1 1.377-1.308 1.998-.381 3.995-.48 5.992-.48 1.997 0 3.994.099 5.99.48.903.208 1.182.585 1.378 1.308.395 2.028.496 4.055.496 6.082s-.1 4.055-.496 6.082zm2.66-6.091a36.516 36.516 0 0 0-.579-6.452 3.706 3.706 0 0 0-2.905-2.978 36.529 36.529 0 0 0-6.53-.595h-.029a36.521 36.521 0 0 0-6.53.595 3.706 3.706 0 0 0-2.905 2.977A36.506 36.506 0 0 0 16 21.026v.017c.001 2.15.192 4.302.579 6.453a3.706 3.706 0 0 0 2.905 2.977c2.177.396 4.353.593 6.53.595h.029a36.492 36.492 0 0 0 6.53-.595 3.706 3.706 0 0 0 2.905-2.977c.387-2.151.578-4.302.579-6.453v-.018z" fill="#fff"/><path fill-rule="evenodd" clip-rule="evenodd" d="M31.126 24.382l-3.315-3.34 1.487-1.497a1.24 1.24 0 0 0 .29-.293l1.24-1.248c.312-.3.559-.6.559-1.032 0-.681-.552-1.234-1.233-1.234-.388 0-.703.194-.964.434l-.008.012-1.569 1.58-.005-.005-1.528 1.54-1.528-1.54-.006.006-1.568-1.58-.008-.008c-.305-.289-.576-.438-.964-.438-.68 0-1.233.552-1.233 1.233 0 .432.272.723.56 1.031l1.238 1.249c.08.113.178.212.291.293l1.487 1.498-3.315 3.339-.002-.007c-.171.212-.26.5-.26.794 0 .681.553 1.233 1.234 1.233.435 0 .752-.245 1.036-.566l1.186-1.196c.156-.096.29-.225.388-.378l1.464-1.475 1.464 1.475c.099.153.232.282.387.378l1.187 1.196c.274.272.601.566 1.036.566.681 0 1.233-.552 1.233-1.233a1.24 1.24 0 0 0-.254-.784l-.007-.003zm53.851 1.291a1.166 1.166 0 0 0-.07-.292.374.374 0 0 0-.116-.162.253.253 0 0 0-.153-.052h-5.113V21.78h4.417a.269.269 0 0 0 .153-.046.339.339 0 0 0 .116-.154 1.04 1.04 0 0 0 .07-.283 3.51 3.51 0 0 0 .023-.445c0-.174-.008-.32-.023-.441a1.08 1.08 0 0 0-.07-.288.377.377 0 0 0-.116-.158.253.253 0 0 0-.153-.051h-4.417V16.98H84.6a.235.235 0 0 0 .149-.051.397.397 0 0 0 .11-.163 1.15 1.15 0 0 0 .07-.292c.016-.121.024-.268.024-.441a3.7 3.7 0 0 0-.023-.46 1.228 1.228 0 0 0-.07-.297.358.358 0 0 0-.111-.162.25.25 0 0 0-.149-.047h-6.784a.76.76 0 0 0-.515.181c-.14.12-.21.318-.21.59v10.471c0 .273.07.47.21.59a.76.76 0 0 0 .515.18h6.821a.251.251 0 0 0 .153-.05.37.37 0 0 0 .116-.163c.031-.074.055-.171.07-.292.016-.12.023-.27.023-.45s-.007-.33-.023-.45zM73.14 15.995a1.937 1.937 0 0 0-.429-.298 4.25 4.25 0 0 0-.771-.32 7.817 7.817 0 0 0-1.087-.252 8.446 8.446 0 0 0-1.38-.104c-.92 0-1.753.141-2.502.424a5.302 5.302 0 0 0-1.916 1.222 5.451 5.451 0 0 0-1.227 1.939c-.289.76-.433 1.619-.433 2.575 0 .925.135 1.754.406 2.484a5.05 5.05 0 0 0 1.172 1.858 5.06 5.06 0 0 0 1.871 1.163c.737.268 1.571.402 2.503.402a10.023 10.023 0 0 0 2.787-.397c.288-.084.53-.165.726-.244.195-.078.325-.184.388-.32a1.11 1.11 0 0 0 .094-.473v-4.802c0-.12-.015-.227-.045-.32a.673.673 0 0 0-.13-.24.558.558 0 0 0-.456-.198h-3.94a.228.228 0 0 0-.145.05.387.387 0 0 0-.109.153c-.03.07-.052.161-.067.275a3.348 3.348 0 0 0-.023.424c0 .325.03.555.09.69.06.135.144.203.253.203h2.21v2.863a2.89 2.89 0 0 1-.722.27c-.258.06-.52.09-.785.09-.54 0-1.035-.086-1.483-.261a3.071 3.071 0 0 1-1.15-.775 3.57 3.57 0 0 1-.744-1.277c-.177-.508-.266-1.095-.266-1.763 0-.607.087-1.162.26-1.664.176-.502.425-.932.75-1.29a3.335 3.335 0 0 1 1.172-.83 3.863 3.863 0 0 1 1.534-.292c.528 0 .993.054 1.393.162.4.108.744.226 1.032.352.289.126.52.243.695.351.174.109.3.163.379.163.054 0 .1-.015.14-.045a.338.338 0 0 0 .099-.158c.027-.075.048-.176.063-.302.015-.127.022-.277.022-.451 0-.3-.018-.528-.054-.681a.743.743 0 0 0-.175-.356zm-19.332 6.47l1.685-5.068h.01l1.686 5.068h-3.382zm3.482-6.892a.887.887 0 0 0-.134-.276.476.476 0 0 0-.257-.152 2.317 2.317 0 0 0-.503-.065c-.215-.01-.504-.014-.866-.014-.313 0-.565.005-.756.014-.19.01-.339.03-.446.065a.458.458 0 0 0-.235.147.916.916 0 0 0-.129.253l-3.677 10.578c-.073.215-.12.387-.138.516-.018.13.003.23.064.3.062.07.172.115.332.133.16.019.381.028.664.028.264 0 .477-.006.64-.018.163-.013.289-.036.378-.07a.394.394 0 0 0 .193-.138.726.726 0 0 0 .097-.216l.756-2.332h4.478l.801 2.396c.025.08.056.145.093.194.037.049.1.087.193.115.092.027.226.046.401.055a14.682 14.682 0 0 0 1.442-.009c.172-.015.291-.055.36-.12.067-.064.092-.161.073-.29a3.195 3.195 0 0 0-.138-.525l-3.686-10.57zM46.076 19.75a1.904 1.904 0 0 1-.38.677 1.672 1.672 0 0 1-.645.441c-.264.105-.59.158-.98.158h-1.647v-4.075h1.59c.255 0 .5.017.74.05.237.035.465.117.681.247.217.13.4.33.548.603.149.273.223.62.223 1.04 0 .31-.043.596-.13.859zm1.885-3.389a3.244 3.244 0 0 0-.943-.728 4.094 4.094 0 0 0-1.09-.395 8.635 8.635 0 0 0-.924-.14 9.673 9.673 0 0 0-.812-.032h-3.383c-.247 0-.447.073-.598.218-.152.146-.228.364-.228.655v10.806c0 .061.019.117.056.167a.38.38 0 0 0 .195.12c.093.031.218.056.376.075.157.018.354.027.59.027.24 0 .439-.009.594-.027a1.96 1.96 0 0 0 .37-.075.422.422 0 0 0 .2-.12.26.26 0 0 0 .06-.167v-3.834h1.554c.792 0 1.48-.093 2.066-.279a4.052 4.052 0 0 0 1.48-.812c.403-.356.71-.794.92-1.314.21-.52.315-1.117.315-1.792 0-.488-.068-.93-.204-1.323a3.046 3.046 0 0 0-.594-1.03z" fill="#fff"/></svg>
